X:33
C:Page 16
T:Girl I Left Behind Me. MBe.33, The
S:Matthew Betham MS, Towcett Cumbria, 1815
O:England;Cumbria;Towcett
Z:VMP – Hugh Taylor, 2012
M:C|
L:1/8
Q:1/4=100
R:.Reel
K:G
g|dcBA BGEF|GGGB d2 Bg|dcBA BGEF|EADF G2 G:|
|:c|Bdef gdBG|Bdef g2 ge|dcBA BGEF|FADF G2 G:|

